packages/icons/src/map-fill.svg

<svg xmlns="http://www.w3.org/2000/svg" width="24" height="24" fill="none" viewBox="0 0 24 24">
  <path fill="#000" d="m20.5 3-.16.03L15 5.1 9 3 3.36 4.9c-.21.07-.36.25-.36.48V20.5c0 .28.22.5.5.5l.16-.03L9 18.9l6 2.1 5.64-1.9c.21-.07.36-.25.36-.48V3.5c0-.28-.22-.5-.5-.5ZM15 19l-6-2.11V5l6 2.11V19Z"/>
</svg>

<svg width="24" height="24" viewBox="0 0 24 24" fill="none" xmlns="http://www.w3.org/2000/svg">
<path d="M20.5 3L20.34 3.03L15 5.1L9 3L3.36 4.9C3.15 4.97 3 5.15 3 5.38V20.5C3 20.78 3.22 21 3.5 21L3.66 20.97L9 18.9L15 21L20.64 19.1C20.85 19.03 21 18.85 21 18.62V3.5C21 3.22 20.78 3 20.5 3ZM15 19L9 16.89V5L15 7.11V19Z" fill="black"/>
</svg>
